X: 1
T: Greensleeves (and Yellow Lace)
O: Trad
Z: John Chambers <jc:trillian.mit.edu>
R: jig
M: 6/8
L: 1/8
K: GDor
G \
|: "Gm"B2B B>cd | "F"cAF F>GA | "Gm"B2G G>AB | "D7"A2^F D2A \
|  "Gm"B2B B>cd | "F"cAF F>GA | "Gm/E"B>AG "D7"A^F2 | "Gm"G6 :|
e \
|: "Bb"f2f f>ed | "F"c>AF F2f | "Gm"g2a bag | "Dm"f>dd d2e \
|  "Bb"f2f f>ed | "F"c>AF FGA | "Gm/E"B>AG "D7"A^F2 | "Gm"G6 :|
